X:168
T:6/8 de Petit Sarny
C:Eric Favreau
Z:robin.beech@mcgill.ca
R:jig
M:6/8
L:1/8
K:Emin
B3 Bcd | B3 BAG | EFG AGA | BGE D3 | B3 Bcd | B3 BAG | EFG AGA |1
BGG G3 :|2 BGG GBc |: dBd gdB | AGA BGE | DBB Dcc | DBB ABc | dBd gdB |
AGA BGE |1 Dgf edB | AGF G3 :|2 DB,D EDE | FEF G3 || Bc |: dBd g2f |
ece gdc | Bdg gfg | a4 Bc | dBd g2f | ece gdc |  Bdg fef |1 g4 Bc :|2 g6 |]

